src/assets/images/skype.svg

<svg width="26" height="26" viewBox="0 0 26 26" fill="none" xmlns="http://www.w3.org/2000/svg">
<path fill-rule="evenodd" clip-rule="evenodd" d="M18.9922 26C17.5779 26 16.2335 25.5882 15.0757 24.8043C11.3244 25.4601 7.3857 24.3341 4.52568 21.4743C1.66705 18.6155 0.539749 14.6772 1.19574 10.9243C0.411804 9.76646 0 8.42215 0 7.00781C0 3.14368 3.14368 0 7.00781 0C8.42215 0 9.76646 0.411804 10.9243 1.19574C19.1015 -0.233673 26.239 6.86876 24.8043 15.0757C25.5882 16.2335 26 17.5779 26 18.9922C26 22.8563 22.8563 26 18.9922 26ZM15.9386 22.9218C16.8185 23.6067 17.8744 23.9688 18.9922 23.9688C21.7362 23.9688 23.9688 21.7364 23.9688 18.9922C23.9688 17.8744 23.6067 16.8185 22.9218 15.9386C22.7373 15.7015 22.6671 15.3951 22.7304 15.1015C24.253 8.01292 17.9379 1.75731 10.8985 3.26964C10.6051 3.33272 10.2985 3.2627 10.0614 3.07822C9.18149 2.39326 8.1256 2.03125 7.00781 2.03125C4.26384 2.03125 2.03125 4.26364 2.03125 7.00781C2.03125 8.1256 2.39326 9.18149 3.07822 10.0614C3.2627 10.2985 3.33292 10.6049 3.26964 10.8985C1.75037 17.9712 8.04565 24.2461 15.1015 22.7304C15.3937 22.6675 15.7005 22.7365 15.9386 22.9218ZM13.9355 12.2269C14.9484 12.5231 18.0105 13.4187 18.0105 15.9961C18.0105 18.0861 15.9552 20.0078 13 20.0078C11.1005 20.0078 9.11305 19.1233 8.31384 17.4279C8.07481 16.9205 8.29222 16.3155 8.79944 16.0762C9.30685 15.837 9.91206 16.0546 10.1513 16.5618C10.5439 17.3948 11.7152 17.9766 13 17.9766C14.6149 17.9766 15.9792 17.0696 15.9792 15.9961C15.9792 14.9545 14.161 14.4057 12.6174 13.9398C12.4868 13.9003 12.3581 13.8615 12.2327 13.823C12.186 13.8087 12.1295 13.7921 12.0645 13.7731C11.0516 13.4769 7.98952 12.5813 7.98952 10.0039C7.98952 7.91394 10.0448 5.99219 13 5.99219C14.8995 5.99219 16.8869 6.87669 17.6862 8.57211C17.9252 9.07953 17.7078 9.68454 17.2006 9.92377C16.6931 10.163 16.0879 9.94539 15.8487 9.43817C15.4561 8.60524 14.2848 8.02344 13 8.02344C11.3851 8.02344 10.0208 8.93036 10.0208 10.0039C10.0208 11.0455 11.839 11.5943 13.3826 12.0602C13.5132 12.0997 13.6419 12.1385 13.7673 12.177C13.814 12.1913 13.8705 12.2079 13.9355 12.2269Z" fill="#FF8F3E"/>
</svg>

<svg width="26" height="26" fill="none" xmlns="http://www.w3.org/2000/svg"><path fill-rule="evenodd" clip-rule="evenodd" d="M18.992 26a6.933 6.933 0 01-3.916-1.196c-3.752.656-7.69-.47-10.55-3.33-2.859-2.858-3.986-6.797-3.33-10.55A6.933 6.933 0 010 7.008 7.016 7.016 0 017.008 0c1.414 0 2.758.412 3.916 1.196 8.178-1.43 15.315 5.673 13.88 13.88A6.933 6.933 0 0126 18.992 7.016 7.016 0 0118.992 26zm-3.053-3.078a4.927 4.927 0 003.053 1.047 4.982 4.982 0 004.977-4.977 4.927 4.927 0 00-1.047-3.053 1.015 1.015 0 01-.192-.838C24.253 8.014 17.938 1.758 10.898 3.27c-.293.063-.6-.007-.837-.192a4.926 4.926 0 00-3.053-1.047A4.982 4.982 0 002.03 7.008c0 1.118.362 2.173 1.047 3.053.185.238.255.544.192.838C1.75 17.97 8.046 24.245 15.1 22.73c.293-.063.6.006.838.192zm-2.004-10.695c1.013.296 4.075 1.192 4.075 3.77 0 2.09-2.055 4.01-5.01 4.01-1.9 0-3.887-.884-4.686-2.58a1.016 1.016 0 011.837-.865c.393.833 1.564 1.415 2.849 1.415 1.615 0 2.98-.907 2.98-1.98 0-1.043-1.819-1.591-3.363-2.057l-.384-.117-.168-.05c-1.013-.296-4.075-1.192-4.075-3.77 0-2.09 2.055-4.01 5.01-4.01 1.9 0 3.887.884 4.686 2.58a1.016 1.016 0 01-1.837.865c-.393-.833-1.564-1.415-2.849-1.415-1.615 0-2.98.907-2.98 1.98 0 1.043 1.819 1.591 3.363 2.057l.384.117.168.05z" fill="#FF8F3E"/></svg>
